X:1
T:Legal Repercussions
M:C
L:1/8
Q:80
C:Michael Grey
S:Reel
K:HP
[| {g}GA | \
{g}B{G}B{g}BA{g}BA{g}GA | \
{g}Bd{g}d{G}d{g}e2{g}ef |
{a}ga{g}af{a}ge{g}dB | \
{g}ed{g}BA{gAGAG}A2{g}GA{g}B{G}B{g}BA{g}BA{g}GA | \
{g}Bd{g}d{G}d{g}e2{g}ef |
{a}ga{g}af{a}ge{g}dB | \
{gBd}B2{e}A2{gAGAG}A2|] [ | \
{g}ef |
{a}gf{g}ef{a}ga{g}af | \
{a}ge{g}dB{g}eB{g}dB | \
{g}GA{g}B{G}B{g}de{g}Bd |
{g}ed{g}BA{gAGAG}A2{g}ef{a}gf{g}ef{a}ga{g}af | \
{a}ge{g}dB{g}eB{g}dB | \
{g}GA{g}B{G}B{g}de{g}Bd |
{gBd}B2{e}A2{gAGAG}A2|] [ | \
{g}GA | \
{g}B{G}B{g}de{g}B{G}B{g}de |
{g}e{A}e{g}ef{a}ge{ag}a2 | \
{g}ag{a}eg{a}de{g}Bd | \
{g}ed{g}BA{gAGAG}A2{g}GA{g}B{G}B{g}de{g}B{G}B{g}de |
{g}e{A}e{g}ef{a}ge{ag}a2 | \
{g}ag{a}eg{a}de{g}Bd | \
{gBd}B2{e}A2{gAGAG}A2|] [ |
{g}ef | \
{a}ge{g}e{A}e{g}egae | \
{a}gaeg{a}ed{g}BA |
a{g}aA{a}gae{a}ga | \
ed{g}BA{gAGAG}A2{g}ef{a}ge{g}e{A}e{g}egae | \
{a}gaeg{a}ed{g}BA |
a{g}aA{a}gaA{g}ed | \
{gBd}B2{e}A2{gAGAG}A4|]
